!!!COM: Dunstable, John
!!!OTL: Speciosa facta es
!!!ONM: No. 50
!!!YOR: from: "Musica Britannica" Vol. 8, edited by Manfred F. Bukofzer,
!!!YOR: 2nd rev. ed. (prepared by Margaret Bent, Ian Bent & Brian Trowell), p.124
!!!YOO: Royal Musical Association (London)
!!!YOY: 1970
**kern	**kern	**kern
*ICvox	*ICvox	*ICvox
! tenor	! contratenor	! discantus
*M3/4	*M3/4	*M3/4
=1	=1	=1
*>A	*>A	*>A
!! Section 'A'; (O) mensuration.
[2.f	[2.f	[2.f
=2	=2	=2
2f]	2f]	2f]
4e	4c	4g
=3	=3	=3
2.c	2e	4.a
.	.	8g
.	4r	4e
=4	=4	=4
2d	4d	4f
.	4B-	8d
.	.	8e
4B-	4d	8f
.	.	8g
=5	=5	=5
2c	4c	4e
.	4e	4.a
[4B-	4d	.
.	.	8g
=6	=6	=6
4B-]	2d	[4g
2A	.	12g]
.	.	12f#x
.	.	12g
.	4c	6f#x
.	.	12e
=7	=7	=7
[2.G	4d	4g
.	2g	4r
.	.	8b
.	.	8cc
=8	=8	=8
4G]	4d	4dd
[2d	[2f	8cc
.	.	4a
.	.	8b
=9	=9	=9
2d]	2f]	8dd
.	.	8cc
.	.	4a
[4G	[4g	[4b
=10	=10	=10
2G]	4g]	4b]
.	4g	4b
[4B-	[4d	8g
.	.	8g
=11	=11	=11
4B-]	4d]	4g
2F	2f	4a
.	.	8a
.	.	8a
=12	=12	=12
2c	4e	4g
.	8g	8e
.	8e	8c
4B-	4f	4d
=13	=13	=13
8c	4e	8c
8A	.	2f
8B-	8d	.
8A	8c	.
4G	4Bnx	.
.	.	8e
=14	=14	=14
2.F	2c	4f
.	.	4r
.	4r	8a
.	.	8b
=15	=15	=15
2.r	2e	2cc
.	4f	4a
=16	=16	=16
2.r	8.g	4g
.	16e	.
.	4f	8a
.	.	4cc
.	8e	.
.	8d	8b
=17	=17	=17
2.r	4f	4a
.	8e	8cc
.	4g	8b
.	.	4dd
.	8f	.
=18	=18	=18
2.r	8e	8cc
.	4d	8.b
.	.	16g
.	8c	4g
.	4A	.
.	.	8f#x
=19	=19	=19
[2.G	2d	4g
.	.	4r
.	4r	4e
=20	=20	=20
4G]	2d	4.g
2B-	.	.
.	.	8f
.	4g	8e
.	.	8d
=21	=21	=21
2c	2e	4c
.	.	4r
4B-	4d	8f
.	.	8g
=22	=22	=22
4A	4e	4a
2d	2f	4.b-x
.	.	8a
=23	=23	=23
4c	4e	4a
2B-	2d	8g
.	.	8a
.	.	4g
=24	=24	=24
2.F	2f	4a
.	.	4r
.	4c	4cc
=25	=25	=25
2.f	2F	4.cc
.	.	8cc
.	4A	4cc
=26	=26	=26
2.g	2G	8b-x
.	.	8b-x
.	.	2dd
.	4G	.
=27	=27	=27
4e	4g	4cc
8d	8f	8b-x
8e	8e	4g
4c	4e	.
.	.	8a
=28	=28	=28
8d	8f	8bnx
4f	4a	8.dd
.	.	16cc
8e	4g	4cc
4d	.	.
.	8f	8b
=29	=29	=29
2c	2g	4cc
.	.	4r
4d	4r	4b
=30	=30	=30
2c	2r	8cc
.	.	8cc
.	.	4a
4G	4e	4r
=31	=31	=31
2.F	8f	2r
.	8e	.
.	4d	.
.	4c	4a
=32	=32	=32
4c	2F	2a
4A	.	.
4B-	4G	4g
=33	=33	=33
2c	4F	4a
.	2r	4e
4d	.	4f
=34	=34	=34
8e	8c	2.r
8.g	4B-	.
16f	.	.
4f	8A	.
.	4G	.
8e	.	.
=35	=35	=35
4.f	2.F	4.a
8e	.	8b-x
8d	.	4cc
8c	.	.
=36	=36	=36
2c	2F	4.cc
.	.	8b-x
[4B-	4B-	8a
.	.	8g
=37	=37	=37
4B-]	4d	2g
2A	2c	.
.	.	4f#x
=38	=38	=38
2.G	2d	4g
.	.	4r
.	4r	4g
=39	=39	=39
2.c	2e	4.a
.	.	8g
.	4g	4e
=40	=40	=40
4A	4a	8f
.	.	16e
.	.	16f
2B-	4r	8g
.	.	8f
.	4f	4d
=41	=41	=41
4c	8r	4c
.	8g	.
4d	8f	8r
.	8d	8B
8r	4e	4c
8c	.	.
=42	=42	=42
2F	2.f	4r
.	.	8cc
.	.	8cc
4A	.	4cc
=43	=43	=43
2G	2g	4dd
.	.	4.b-x
[4B-	[4d	.
.	.	8g
=44	=44	=44
4B-]	4d]	4g
4c	2c	4e
4A	.	8f#x
.	.	16e
.	.	16f#x
=45	=45	=45
2.G	2d	4g
.	.	4r
.	4e	4b
=46	=46	=46
2.F	8r	4cc
.	2f	.
.	.	4cc
.	.	4a
.	8c	.
=47	=47	=47
2c	2e	4g
.	.	8a
.	.	4cc
4r	[4c	.
.	.	8b
=48	=48	=48
4c	4c]	4g
8d	2F	2r
4f	.	.
8e	.	.
=49	=49	=49
4c	4c	4a
2F	8d	4.cc
.	4f	.
.	8e	8dd
=50	=50	=50
4r	8d	8b
.	8e	8g
2c	8c	8a
.	4e	4g
.	[8g	8e
=51	=51	=51
4Bnx	8g]	4d
.	8f	.
2c	2e	4c
.	.	4g
=52	=52	=52
4d	4f	4r
4.f	8d	8a
.	8r	8cc
.	8f	8dd
8e	[8g	[8cc
=53	=53	=53
4d	8g]	8cc]
.	8f	8b
4c	4g	4cc
4d	8f	8a
.	8d	8b-
=54	=54	=54
8c	4e	8.a
4A	.	.
.	.	16f
.	8c	8.f
8B-	8d	.
.	.	16d
4G	4Bnx	8e
.	.	16d
.	.	16e
=55	=55	=55
[2.F	[2.c	[2.f
=56	=56	=56
2.F]	2.c]	2.f]
==	==	==
*-	*-	*-
!!!ENC: Mark Laxton
!!!EDD: Mark Laxton
!!!YEC: Mark Laxton, 1987
!!!EMD: Reference records added by D. Huron, 2001
!!!EEV: 1.1
